X:39
T:Hit And Miss. (p)1651.PLFD.039
T:Hit Or Miss. (p)1651.PLFD.039
M:6/4
L:1/4
Q:1/2=120
S:Playford, Dancing Master,1st Ed.,1651.
O:England
H:1651.
Z:Chris Partington.
K:C
c2decA|G>AB/c/|dBG|e2fgec|dBGcGE:|
|:ccccd/e/f|e3e>dc|B>cdd>ef|g3e2c:|
|:ed2B2G|gf2e2c|e2df2e|g3e2c:|
